X:3409
L:1/8
M:4/4
K:Bb
 DD | G3 A B2 d2 | cB (AG) F3 F | G2 e2 d2 c2 | d6 (dc) |"^(a)" B2 AA (GA) (Bc) | 
"^(b)" (de) (dc) B2 (dc) | B2 G2 (FG) A2 | G6 |]

